X:49
T:Dingle Regatta, The
R:slide
Z:id:hn-slide-49
M:6/8
K:G
dBd e2d|BAB d2B|A2A AGA|B2A G2d|dBd e2d|BAB d2B|AGA B2A|G3 G2d:|
|:d2d def|g3 gfg|a2a aga|b2a gfe|d2d def|g3 gfg|a2g f2e|def g3:|
|:g3 d3|BdB G3|A2A DEF|G2B d3|g3 d3|BdB G3|ABA DEF|1 G3 GBd:|2 G3 G2d||
<end>
<start>
